X:1
T:Road To Santiago
C:Hubert Dohr
M:2/4
L:1/8
K:Emin
|:EF GA|B2 AB|c2 B2|A4|
ed cB|A2 GA|BA GF|E4:|
|:ed ed|cB cB|AB AG|F4|
 [1 EF GA|B2 AB|c2 B2|A4:|
 [2 EF GA|B2 AG|FG F2|E4||